images/kion_logo.svg

<svg width="131" height="40" viewBox="0 0 131 40" fill="none" xmlns="http://www.w3.org/2000/svg">
<g clip-path="url(#clip0_2_17)">
<path fill-rule="evenodd" clip-rule="evenodd" d="M18.3927 0.0293255L17.413 0.0879765V39.912L18.3927 39.9707C18.7711 39.9903 19.1396 40 19.4985 40C19.8576 40 20.2359 39.9903 20.6044 39.9707L21.5843 39.912V0.0879765L20.6044 0.0293255C19.8576 -0.00977516 19.1494 -0.00977516 18.3927 0.0293255ZM28.2099 20.2151C28.1322 20.0195 28.1322 19.8044 28.2099 19.6089L33.4871 5.77707L32.9632 5.29808C32.391 4.77023 31.7798 4.26191 31.1493 3.80248L30.053 3.00092L24.3005 18.0937C23.8542 19.2571 23.8542 20.5473 24.2907 21.7107L30.0336 36.9989L31.1395 36.1975C31.77 35.738 32.3812 35.2297 32.9536 34.7019L33.4677 34.2228L28.2099 20.2151ZM6.5092 17.7908L1.50361 11.3685L0.863366 13.1378C0.552943 13.998 0.300724 14.8876 0.106708 15.7967L0 16.2756L2.81321 19.8729C2.91022 19.9903 2.91022 20.1661 2.81321 20.2835L0.0194015 23.8025L0.12611 24.2913C0.320125 25.1907 0.582045 26.0704 0.89247 26.9208L1.53271 28.6608L6.4995 22.3949C7.58598 21.0264 7.58598 19.1789 6.5092 17.7908ZM39.0069 16.2267L36.2033 19.7653C36.1064 19.8924 36.1064 20.0585 36.1937 20.1759L38.9972 23.7633L38.8904 24.2424C38.6965 25.1417 38.4346 26.0312 38.1241 26.8915L37.4839 28.6509L32.4976 22.258C31.4209 20.8699 31.4209 19.0127 32.517 17.6344L37.5033 11.3489L38.1435 13.0987C38.454 13.9491 38.7062 14.8387 38.9002 15.738L39.0069 16.2267ZM7.85762 3.80248L8.9635 3.00092L14.7257 18.348C15.1623 19.5112 15.1623 20.8015 14.7161 21.9648L8.98291 37.0088L7.88672 36.2072C7.25617 35.7477 6.64503 35.2395 6.07268 34.7116L5.54884 34.2325L10.8066 20.4496C10.8843 20.2541 10.8843 20.0391 10.8066 19.8436L5.52944 5.78684L6.04358 5.29808C6.61593 4.77023 7.22707 4.26191 7.85762 3.80248Z" fill="#61D7AC"/>
<path fill-rule="evenodd" clip-rule="evenodd" d="M57.2356 17.6639H54.8881V3.91992H50.6875V35.6111H54.8881V21.8672H57.2356H59.2631H60.4562C61.339 21.8672 62.1247 22.3657 62.5225 23.1575L68.5952 35.5231L68.6437 35.6111H73.2903L66.2476 21.2807C65.7723 20.3227 65.7723 19.2181 66.2476 18.2601L73.2806 3.9297H68.634L62.5225 16.3833C62.1345 17.1751 61.339 17.6736 60.4562 17.6736H59.2631H57.2356V17.6639ZM113.5 35.5035V16.5983H119.35C119.864 16.5983 120.368 16.7449 120.795 17.0284C121.047 17.1945 121.28 17.3999 121.455 17.6443C121.61 17.8592 121.678 18.0841 121.746 18.3383L121.891 18.8368L122.328 20.3324L122.329 20.336V20.3361C122.523 20.9996 122.716 21.6631 122.91 22.3363C123.021 22.7224 123.135 23.1109 123.249 23.4995C123.363 23.8881 123.477 24.2767 123.589 24.6628C123.831 25.4839 124.074 26.3148 124.307 27.1359C124.423 27.5416 124.542 27.9497 124.661 28.3579C124.78 28.7659 124.898 29.174 125.015 29.5797C125.121 29.9495 125.23 30.3216 125.338 30.6937L125.339 30.6952L125.339 30.6961L125.34 30.6991L125.34 30.6995L125.34 30.7005C125.449 31.0739 125.558 31.4472 125.665 31.8183C125.757 32.1261 125.847 32.434 125.936 32.742C126.026 33.0499 126.116 33.3579 126.208 33.6657L126.586 34.956C126.611 35.0489 126.637 35.1393 126.664 35.2297C126.691 35.3201 126.717 35.4105 126.742 35.5035V35.5132H131L125.442 16.4125L125.364 16.2561C124.219 13.9296 121.911 12.4829 119.34 12.4829H109.397V35.5132H113.5V35.5035ZM77.9177 8.81732C76.5886 8.81732 75.5119 7.71274 75.5119 6.35398C75.5119 5.02455 76.5886 3.92974 77.9177 3.92974C79.2661 3.92974 80.3622 5.01478 80.3622 6.35398C80.3622 7.71274 79.2661 8.81732 77.9177 8.81732ZM80.0323 12.3657H75.8319V35.6209H80.0323V12.3657ZM94.758 36.0704C88.2294 36.0704 82.9134 30.6648 82.9134 24.0176C82.9134 20.7723 84.1357 17.7224 86.3571 15.4448C88.5883 13.1672 91.5665 11.9062 94.758 11.9062C101.422 11.9062 106.641 17.2239 106.641 24.0079C106.641 27.2336 105.419 30.2541 103.207 32.522C100.976 34.8095 97.9786 36.0704 94.758 36.0704ZM94.758 31.8867C99.0458 31.8867 102.402 28.4263 102.402 24.0176C102.402 19.5797 99.036 16.1095 94.758 16.1095C90.4896 16.1095 87.1525 19.5797 87.1525 24.0176C87.1525 28.4263 90.4896 31.8867 94.758 31.8867Z" fill="#283337"/>
</g>
<defs>
<clipPath id="clip0_2_17">
<rect width="131" height="40" fill="white"/>
</clipPath>
</defs>
</svg>

<svg width="131" height="40" fill="none" xmlns="http://www.w3.org/2000/svg"><g clip-path="url(#clip0_2_17)" fill-rule="evenodd" clip-rule="evenodd"><path d="M18.393.03l-.98.058v39.824l.98.059a21.381 21.381 0 002.211 0l.98-.059V.088l-.98-.059a20.906 20.906 0 00-2.211 0zm9.817 20.185a.817.817 0 010-.606l5.277-13.832-.524-.479a20.515 20.515 0 00-1.814-1.496l-1.096-.801L24.3 18.094a5.105 5.105 0 00-.01 3.617l5.744 15.288 1.106-.802c.63-.459 1.241-.967 1.814-1.495l.514-.48-5.258-14.007zm-21.7-2.424l-5.006-6.423-.64 1.77c-.311.86-.563 1.75-.757 2.659L0 16.276l2.813 3.597a.326.326 0 010 .41L.02 23.803l.107.488c.194.9.456 1.78.766 2.63l.64 1.74L6.5 22.395c1.086-1.369 1.086-3.216.01-4.604zm32.497-1.564l-2.804 3.538a.34.34 0 00-.01.41l2.804 3.588-.107.48a20.638 20.638 0 01-.766 2.649l-.64 1.759-4.986-6.393c-1.077-1.388-1.077-3.245.019-4.624l4.986-6.285.64 1.75c.311.85.563 1.74.757 2.639l.107.489zM7.857 3.802l1.106-.801 5.763 15.347a5.105 5.105 0 01-.01 3.617L8.983 37.009l-1.096-.802c-.63-.46-1.242-.968-1.814-1.495l-.524-.48 5.258-13.782a.817.817 0 000-.606L5.529 5.787l.515-.489a20.532 20.532 0 011.814-1.496z" fill="#61D7AC"/><path d="M57.236 17.664h-2.348V3.92h-4.2v31.69h4.2V21.867h5.568c.883 0 1.669.499 2.066 1.29l6.073 12.366.049.088h4.646l-7.042-14.33a3.378 3.378 0 010-3.02L73.28 3.93h-4.647l-6.111 12.453a2.294 2.294 0 01-2.067 1.29h-3.22v-.01zm56.264 17.84V16.598h5.85a2.61 2.61 0 011.445.43c.252.167.485.372.66.616.155.215.223.44.291.694l.145.499.437 1.495.001.004c.194.664.387 1.327.581 2 .111.386.225.775.339 1.164l.34 1.163c.242.82.485 1.652.718 2.473.116.406.235.814.354 1.222l.354 1.222c.106.37.215.742.323 1.114l.001.001v.001l.001.003v.002l.325 1.117c.092.308.182.616.271.924.09.308.18.616.272.924l.378 1.29c.025.093.051.183.078.274.027.09.053.18.078.274v.01H131l-5.558-19.102-.078-.156c-1.145-2.326-3.453-3.773-6.024-3.773h-9.943v23.03h4.103v-.01zM77.918 8.817c-1.33 0-2.406-1.104-2.406-2.463 0-1.33 1.077-2.424 2.406-2.424a2.435 2.435 0 012.444 2.424 2.456 2.456 0 01-2.444 2.463zm2.114 3.549h-4.2V35.62h4.2V12.366zM94.758 36.07c-6.529 0-11.845-5.405-11.845-12.052 0-3.246 1.223-6.296 3.444-8.573a11.67 11.67 0 018.401-3.539c6.664 0 11.883 5.318 11.883 12.102 0 3.226-1.222 6.246-3.434 8.514-2.231 2.288-5.228 3.548-8.449 3.548zm0-4.183c4.288 0 7.644-3.46 7.644-7.87 0-4.437-3.366-7.907-7.644-7.907-4.268 0-7.605 3.47-7.605 7.908 0 4.408 3.337 7.869 7.605 7.869z" fill="#283337"/></g><defs><clipPath id="clip0_2_17"><path fill="#fff" d="M0 0h131v40H0z"/></clipPath></defs></svg>
